!!!!SEGMENT: pl-cz--iii-555--001-010_raszek-waclaw--requiem-lux-aeterna.krn
!!!cenid: 17xx:1089
!!!COM: Raszek, Wacław
!!!COM-rismID: pe30020314
!!!CDT: <1848->1848
!!!CNT:
!!!OPR: Requiem
!!!OTL: Lux aeterna
!!!OMV: 010
!!!PDT:
!!!AGN: Sacred; Requiem
!!!YEC: Copyright 2022 Narodowy Instytut Fryderyka Chopina (https://polishscores.org)
!!!YEM: License CC-BY-4.0 (https://creativecommons.org/licenses/by/4.0)
!!!SMS-siglum: PL-CZ
!!!SMS-shelfmark: III-555
!!!SMS-shelfwork: 001-010 M
!!!SMS-variant:
!!!SMS-altvar:
!!!NIFC-rismSourceID: 300001055
!!!NIFC-rismChildID: 300001055
!!!NIFC-islandoraID: pl-cz:38890
!!!URL-pdf-islandora: https://repozytorium.nifc.pl/islandora/object/pl-cz%3A38890/datastream/PDF/view
!!!URL-scan: https://polish.musicsources.pl/pl/lokalizacje/galeria/rekopisy/6945/1 @EN{Scan on Polish Music Sources Website} @PL{Skany w portalu Dziedzictwo Muzyki Polskiej w otwartym dostępie}
!!!IIIF:
!!!ONB-nifc: UWAGA: części Requiem: Requiem, Kyrie, Dies irae, Qui Mariam, Domine Jesu Christe, Sanctus, Pleni sunt, Benedictus, Agnus Dei, Lux aeterna
!!!AIN: 1 alto 1 bass 2 clars 1 cor 2 empty 1 tenor 1 vox
!!!key:
**kern	**text	**dynam	**kern	**text	**dynam	**mod-dynam	**kern	**text	**dynam	**mod-dynam	**kern	**text	**blank	**dynam	**kern	**dynam	**kern	**dynam	**kern	**kern	**kern	**dynam
*part9	*	*	*part8	*	*	*	*part7	*	*	*	*part6	*	*	*	*part5	*	*part4	*	*part3	*part2	*part1	*
*staff9	*	*	*staff8	*	*	*	*staff7	*	*	*	*staff6	*	*	*	*staff5	*	*staff4	*	*staff3	*staff2	*staff1	*
*Ibass	*	*	*Itenor	*	*	*	*Ialto	*	*	*	*Ivox	*	*	*	*Icor	*	*Iempty	*	*Iempty	*Iclars	*Iclars	*
*I"Basso.	*	*	*I"Tenore.	*	*	*	*I"Alto	*	*	*	*I"Canto	*	*	*	*I"Corno 2do in Dis	*	*I"Corno 1mo in dis	*	*I"Fagotto vel Violone	*I"Clarinetto 2do in B	*I"Clarinetto 1mo in B	*
*mI"Basso	*	*	*mI"Ternore	*	*	*	*	*	*	*	*mI"Soprano	*	*	*	*mI"Corno II in D#	*	*mI"Corno I in D#	*	*	*mI"CLarinetto I in Bb	*mI"Clarinetto I in Bb	*
*I'B.	*	*	*I'T.	*	*	*	*I'A.	*	*	*	*I'C.	*	*	*	*I'C. II	*	*I'C. I	*	*I'Fag. vel Violone	*I'Cl. II	*I'Cl. I	*
*mI'B	*	*	*mI'T	*	*	*	*mI'A	*	*	*	*mI'S	*	*	*	*mI'cor II	*	*mI'cor I	*	*mI'fag vel vlne	*mI'cl II	*mI'cl I	*
*clefF4	*	*	*clefC4	*	*	*	*clefC3	*	*	*	*clefC1	*	*	*	*clefG2	*	*clefG2	*	*clefF4	*clefG2	*clefG2	*
*	*	*	*mclefGv2	*	*	*	*mclefG2	*	*	*	*mclefG2	*	*	*	*	*	*	*	*	*	*	*
*	*	*	*	*	*	*	*	*	*	*	*	*	*	*	*ITrd5c9	*	*ITrd5c9	*	*	*ITrd1c2	*ITrd1c2	*
*k[b-e-a-]	*	*	*k[b-e-a-]	*	*	*	*k[b-e-a-]	*	*	*	*k[b-e-a-]	*	*	*	*k[b-e-a-]	*	*k[b-e-a-]	*	*k[b-e-a-]	*k[b-e-a-]	*k[b-e-a-]	*
*B-:	*	*	*B-:	*	*	*	*B-:	*	*	*	*B-:	*	*	*	*B-:	*	*B-:	*	*B-:	*B-:	*B-:	*
*M2/2	*	*	*M2/2	*	*	*	*M2/2	*	*	*	*M2/2	*	*	*	*M2/2	*	*M2/2	*	*M2/2	*M2/2	*M2/2	*
*met(c|)	*	*	*met(c|)	*	*	*	*met(c|)	*	*	*	*met(c|)	*	*	*	*met(c|)	*	*met(c|)	*	*met(c|)	*met(c|)	*met(c|)	*
=1	=1	=1	=1	=1	=1	=1	=1	=1	=1	=1	=1	=1	=1	=1	=1	=1	=1	=1	=1	=1	=1	=1
*2\right	*	*	*2\right	*	*	*	*2\right	*	*	*	*2\right	*	*	*	*2\right	*	*2\right	*	*2\right	*2\right	*2\right	*
!!!OMD:
!!!OMD-mod: Andante
!	!	!	!	!	!	!	!	!	!	!	!	!	!	!	!	!	!	!	!	!LO:TX:t=P:problem=all\right&colon; global	!	!
!	!	!	!	!	!	!	!	!	!	!	!	!	!	!	!	!	!	!	!	!LO:TX:a:Bi:t=Andante:mod=	!	!
2B-\	Lux	.	2B-\	Lux	.	.	2f\	Lux	.	.	2dd\	Lux	.	.	2B-/	.	2f\	.	4BB-/	2.b-\	2dd\	.
.	.	.	.	.	.	.	.	.	.	.	.	.	.	.	.	.	.	.	4B-\	.	.	.
!	!LO:SIC:v:l:s=ae-	!	!	!LO:SIC:v:l:s=ae-	!	!	!	!LO:SIC:v:l:s=ae-	!	!	!	!LO:SIC:v:l:s=ae-	!	!	!	!	!	!	!	!	!	!
4G\	e-	.	4B-\	e-	.	.	4g\	e-	.	.	4ee-\	e-	.	.	2e-\	.	2g\	.	4G\	.	4ee-\	.
4E-\	.	.	4G/	.	.	.	4e-\	.	.	.	4cc\	.	.	.	.	.	.	.	4E-\	4g/	8dd\L	.
.	.	.	.	.	.	.	.	.	.	.	.	.	.	.	.	.	.	.	.	.	8cc\J	.
=2	=2	=2	=2	=2	=2	=2	=2	=2	=2	=2	=2	=2	=2	=2	=2	=2	=2	=2	=2	=2	=2	=2
4F\	-ter-	.	2F/	-ter-	.	.	4d\	-ter-	.	.	4b-\	-ter-	.	.	2f\	.	2f\	.	4F\	4d/	4b-\	.
4FF/	.	.	.	.	.	.	4c\	.	.	.	4an\	.	.	.	.	.	.	.	4FF/	4c/	4a\	.
!	!	!	!	!	!	!	!	!	!	!	!	!	!	!	!	!	!	!	!LO:TX:t=P:problem=mixed beam	!	!	!
4BB-/	-na	.	4F/	-na	.	.	4d\	-na	.	.	4b-\	-na	.	.	4B-/	.	4f\	.	8BB-\L	4d/	4b-\	.
.	.	.	.	.	.	.	.	.	.	.	.	.	.	.	.	.	.	.	8F\	.	.	.
4r	.	.	4r	.	.	.	4r	.	.	.	4r	.	.	.	4r	.	4r	.	8D\	4r	4r	.
.	.	.	.	.	.	.	.	.	.	.	.	.	.	.	.	.	.	.	8BB-\J	.	.	.
=3	=3	=3	=3	=3	=3	=3	=3	=3	=3	=3	=3	=3	=3	=3	=3	=3	=3	=3	=3	=3	=3	=3
2F\	Lu-	.	2An\	lu-	.	.	2f\	Lu-	.	.	2cc\	lu-	.	.	4r	.	4r	.	4FF/	2a\	2cc\	.
.	.	.	.	.	.	.	.	.	.	.	.	.	.	.	4f\	.	4f\	.	4F\	.	.	.
4F\	-ce-	.	4A\	-ce-	.	.	4f\	-ce-	.	.	8cc\L	-ce-	.	.	4f\	.	4f\	.	4FF/	8a\L	8cc\L	.
.	.	.	.	.	.	.	.	.	.	.	8ee-\J	.	.	.	.	.	.	.	.	8cc\	8ee-\	.
4BB-/	-at	.	8B-\L	-at	.	.	4f\	-at	.	.	8dd\L	-at	.	.	4f\	.	4f\	.	4F\	8b-\	8dd\	.
.	.	.	8d\J	.	.	.	.	.	.	.	8ff\J	.	.	.	.	.	.	.	.	8dd\J	8ff\J	.
=4	=4	=4	=4	=4	=4	=4	=4	=4	=4	=4	=4	=4	=4	=4	=4	=4	=4	=4	=4	=4	=4	=4
2F\	e-	.	4.d\	e-	.	.	2f\	e-	.	.	4.ff\	e-	.	.	2f\	.	2f\	.	4F\	4.dd\	4.ff\	.
.	.	.	.	.	.	.	.	.	.	.	.	.	.	.	.	.	.	.	4FF/	.	.	.
.	.	.	8c\	.	.	.	.	.	.	.	8ee-\	.	.	.	.	.	.	.	.	8cc\	8ee-\	.
4BB-/	-is	.	4B-\	-is	.	.	4f\	-is	.	.	4dd\	-is	.	.	4B-/	.	4f\	.	4BB-/	4b-\	4dd\	.
4r	.	.	4r	.	.	.	4r	.	.	.	4r	.	.	.	4r	.	4r	.	8D/L	4r	4r	.
.	.	.	.	.	.	.	.	.	.	.	.	.	.	.	.	.	.	.	8BB-/J	.	.	.
=5	=5	=5	=5	=5	=5	=5	=5	=5	=5	=5	=5	=5	=5	=5	=5	=5	=5	=5	=5	=5	=5	=5
!	!	!	!	!	!	!	!	!	!	!	!	!	!	!	!	!LO:DY:a	!	!LO:DY:a	!	!	!	!
2r	.	.	2r	.	.	.	2r	.	.	.	2r	.	.	.	2f\	p	2f\	p	2FF/	8F/L	1ff	.
.	.	.	.	.	.	.	.	.	.	.	.	.	.	.	.	.	.	.	.	8A-/	.	.
.	.	.	.	.	.	.	.	.	.	.	.	.	.	.	.	.	.	.	.	8c/	.	.
.	.	.	.	.	.	.	.	.	.	.	.	.	.	.	.	.	.	.	.	8A-/J	.	.
2F\	cum	.	2c\	cum	.	.	2an\	cum	.	.	2ff\	cum	.	.	2r	.	2r	.	2r	8F/L	.	.
.	.	.	.	.	.	.	.	.	.	.	.	.	.	.	.	.	.	.	.	8A-/	.	.
.	.	.	.	.	.	.	.	.	.	.	.	.	.	.	.	.	.	.	.	8c/	.	.
.	.	.	.	.	.	.	.	.	.	.	.	.	.	.	.	.	.	.	.	8A-/J	.	.
=6	=6	=6	=6	=6	=6	=6	=6	=6	=6	=6	=6	=6	=6	=6	=6	=6	=6	=6	=6	=6	=6	=6
1F	San-	.	1c	San-	.	.	1a-	San-	.	.	1ee-	San-	.	.	4r	.	4r	.	4r	8F/L	1ee-	.
.	.	.	.	.	.	.	.	.	.	.	.	.	.	.	.	.	.	.	.	8A-/	.	.
.	.	.	.	.	.	.	.	.	.	.	.	.	.	.	4f\	.	4f\	.	4FF/	8c/	.	.
.	.	.	.	.	.	.	.	.	.	.	.	.	.	.	.	.	.	.	.	8A-/J	.	.
.	.	.	.	.	.	.	.	.	.	.	.	.	.	.	4f\	.	4f\	.	4F\	8F/L	.	.
.	.	.	.	.	.	.	.	.	.	.	.	.	.	.	.	.	.	.	.	8A-/	.	.
.	.	.	.	.	.	.	.	.	.	.	.	.	.	.	4f\	.	4f\	.	4FF/	8c/	.	.
.	.	.	.	.	.	.	.	.	.	.	.	.	.	.	.	.	.	.	.	8A-/J	.	.
=7	=7	=7	=7	=7	=7	=7	=7	=7	=7	=7	=7	=7	=7	=7	=7	=7	=7	=7	=7	=7	=7	=7
2BB-/	-ctis	.	2B-\	-ctis	.	.	2b-\	-ctis	.	.	2dd\	-ctis	.	.	2B-/	.	2f\	.	2BB-/	8F/L	4dd\	.
.	.	.	.	.	.	.	.	.	.	.	.	.	.	.	.	.	.	.	.	8B-/	.	.
.	.	.	.	.	.	.	.	.	.	.	.	.	.	.	.	.	.	.	.	8d/	4ff\	.
.	.	.	.	.	.	.	.	.	.	.	.	.	.	.	.	.	.	.	.	8B-/J	.	.
2r	.	.	2r	.	.	.	2r	.	.	.	2r	.	.	.	2r	.	2r	.	2r	8F/L	4ff\	.
.	.	.	.	.	.	.	.	.	.	.	.	.	.	.	.	.	.	.	.	8B-/	.	.
.	.	.	.	.	.	.	.	.	.	.	.	.	.	.	.	.	.	.	.	8d/	4ff\	.
.	.	.	.	.	.	.	.	.	.	.	.	.	.	.	.	.	.	.	.	8B-/J	.	.
=8	=8	=8	=8	=8	=8	=8	=8	=8	=8	=8	=8	=8	=8	=8	=8	=8	=8	=8	=8	=8	=8	=8
1F	tu-	.	1c	tu-	.	.	1a-	tu-	.	.	1ee-	tu-	.	.	4r	.	4r	.	4r	8F/L	1ee-	.
.	.	.	.	.	.	.	.	.	.	.	.	.	.	.	.	.	.	.	.	8A-/	.	.
.	.	.	.	.	.	.	.	.	.	.	.	.	.	.	4f\	.	4f\	.	4FF/	8c/	.	.
.	.	.	.	.	.	.	.	.	.	.	.	.	.	.	.	.	.	.	.	8A-/J	.	.
.	.	.	.	.	.	.	.	.	.	.	.	.	.	.	4f\	.	4f\	.	4F\	8F/L	.	.
.	.	.	.	.	.	.	.	.	.	.	.	.	.	.	.	.	.	.	.	8A-/	.	.
.	.	.	.	.	.	.	.	.	.	.	.	.	.	.	4f\	.	4f\	.	4FF/	8c/	.	.
.	.	.	.	.	.	.	.	.	.	.	.	.	.	.	.	.	.	.	.	8A-/J	.	.
=9	=9	=9	=9	=9	=9	=9	=9	=9	=9	=9	=9	=9	=9	=9	=9	=9	=9	=9	=9	=9	=9	=9
4B-\	-is	.	4B-\	-is	.	.	4b-\	-is	.	.	4dd\	-is	.	.	2f\	.	2.f\	.	4BB-/	4B-/	4dd\	.
4An\	in	.	4c\	in	.	.	4cc\	in	.	.	4ee-\	in	.	.	.	.	.	.	4AA-/	4d/	8ee-\L	.
.	.	.	.	.	.	.	.	.	.	.	.	.	.	.	.	.	.	.	.	.	8cc\J	.
!	!LO:SIC:v:l:s=ae-	!	!	!LO:SIC:v:l:s=ae-	!	!	!	!LO:SIC:v:l:s=ae-	!	!	!	!LO:SIC:v:l:s=ae-	!	!	!	!	!	!	!	!	!	!
4B-\	e-	.	4B-\	e-	.	.	4b-\	e-	.	.	4ff\	e-	.	.	4B-/	.	.	.	4BB-/	4dd\	4ff\	.
4E-\	.	.	4B-\	.	.	.	4g\	.	.	.	8gg\L	.	.	.	4e-\	.	4g\	.	4E-\	8ee-\L	8gg\L	.
.	.	.	.	.	.	.	.	.	.	.	8ee-\J	.	.	.	.	.	.	.	.	8cc\J	8ee-\J	.
=10	=10	=10	=10	=10	=10	=10	=10	=10	=10	=10	=10	=10	=10	=10	=10	=10	=10	=10	=10	=10	=10	=10
1F	-ter-	.	2B-\	-ter-	.	.	1f	-ter-	.	.	2dd\	-ter-	.	.	2f\	.	2f\	.	2F\	2cc\	2dd\	.
.	.	.	2An\	.	.	.	.	.	.	.	2cc\	.	.	.	2f\	.	2f\	.	2FF/	2a\	2cc\	.
=11	=11	=11	=11	=11	=11	=11	=11	=11	=11	=11	=11	=11	=11	=11	=11	=11	=11	=11	=11	=11	=11	=11
*	*	*	*	*	*	*	*	*	*	*	*	*	*	*	*^	*	*	*	*	*	*	*
2BB-/	num	.	4B-\	-num	.	.	4f\	-num	.	.	4b-\	-num	.	.	4f\	4B-\	.	4f\	.	2BB-/	4b-\	4b-\	.
.	.	.	4r	.	.	.	4r	.	.	.	4ff\	cum	.	.	4r	4ryy	.	4r	.	.	4r	4ff\	.
2r	.	.	2r	.	.	.	2r	.	.	.	4dd\	san-	.	.	2r	2ryy	.	2r	.	2r	2r	4dd\	.
.	.	.	.	.	.	.	.	.	.	.	4b-\	.	.	.	.	.	.	.	.	.	.	4b-\	.
*	*	*	*	*	*	*	*	*	*	*	*	*	*	*	*v	*v	*	*	*	*	*	*	*
=12	=12	=12	=12	=12	=12	=12	=12	=12	=12	=12	=12	=12	=12	=12	=12	=12	=12	=12	=12	=12	=12	=12
4r	.	.	4r	.	.	.	4r	.	.	.	1a-X	-ctis	.	.	4r	.	4r	.	4r	1f	1a-X	.
4F\	cu(m)	.	4B-\	cum	.	.	4f\	cum	.	.	.	.	.	.	4B-/	.	4f\	.	4F\	.	.	.
4D\	san-	.	4B-\	.	.	.	4f\	san-	.	.	.	.	.	.	4B-/	.	4f\	.	4D\	.	.	.
4BB-/	-ctis	.	4B-\	.	.	.	4f\	-ctis	.	.	.	.	.	.	4B-/	.	4f\	.	4BB-\	.	.	.
=13	=13	=13	=13	=13	=13	=13	=13	=13	=13	=13	=13	=13	=13	=13	=13	=13	=13	=13	=13	=13	=13	=13
2E-\	tu-	.	2B-\	san-	.	.	2f\	tu-	.	.	2a-\	tu-	.	.	2B-/	.	2f\	.	4E-\	2f/	2a-/	.
.	.	.	.	.	.	.	.	.	.	.	.	.	.	.	.	.	.	.	4BB-/	.	.	.
2E-\	-is	.	2B-\	-ctis	.	.	2e-\	-is	.	.	2g\	-is	.	.	2e-\	.	2g\	.	2EE-/	2e-/	2g/	.
=14	=14	=14	=14	=14	=14	=14	=14	=14	=14	=14	=14	=14	=14	=14	=14	=14	=14	=14	=14	=14	=14	=14
!	!	!	!	!	!	!	!	!	!	!	!	!	!	!	!	!LO:DY:a	!	!	!	!	!	!
!	!	!	!	!	!	!	!	!	!	!	!	!	!	!	!	!LO:MO:mod=.	!	!	!	!	!	!
4r	.	.	4r	.	.	.	4r	.	.	.	2.ee-\	in	.	.	4r	f	4r	.	4r	4r	2.ee-\	.
!	!	!	!	!	!	!	!	!	!	!	!	!	!	!	!	!LO:MO:null:mod=f	!	!LO:DY:a	!	!	!	!
4E-\	in	.	4B-\	tu-	.	.	4g\	in	.	.	.	.	.	.	4E-/	.	4e-\	f	4E-\	4g/	.	.
!	!LO:SIC:v:l:s=ae-	!	!	!	!	!	!	!	!	!	!	!	!	!	!	!	!	!	!	!	!	!
4F\	E-	.	4A-\	.	.	.	4a-\	.	.	.	.	.	.	.	4E-/	.	4e-\	.	4F\	4a-/	.	.
!	!	!	!	!	!	!	!	!LO:SIC:v:l:s=ae-	!	!	!	!LO:SIC:v:l:s=ae-	!	!	!	!	!	!	!	!	!	!
4G\	.	.	4G/	-is	.	.	4b-\	e	.	.	4dd\	e-	.	.	4E-/	.	4e-\	.	4G\	4b-\	4dd\	.
=15	=15	=15	=15	=15	=15	=15	=15	=15	=15	=15	=15	=15	=15	=15	=15	=15	=15	=15	=15	=15	=15	=15
2A-\	-ter-	.	2A-\	in	.	.	2e-\	ter-	.	.	2cc\	-ter-	.	.	2E-/	.	2e-\	.	4A-\	2e-/	2cc\	.
.	.	.	.	.	.	.	.	.	.	.	.	.	.	.	.	.	.	.	4E-\	.	.	.
!	!	!	!	!LO:SIC:v:l:s=ae-	!	!	!	!	!	!	!	!	!	!	!	!	!	!	!	!	!	!
2AA-/	-num	.	2A-\	e-	.	.	2e-\	-num	.	.	2cc\	-num	.	.	2E-/	.	2e-\	.	4C/	2e-/	2cc\	.
.	.	.	.	.	.	.	.	.	.	.	.	.	.	.	.	.	.	.	4AA-/	.	.	.
=16	=16	=16	=16	=16	=16	=16	=16	=16	=16	=16	=16	=16	=16	=16	=16	=16	=16	=16	=16	=16	=16	=16
*	*	*	*	*	*	*	*	*	*	*	*	*ij	*	*	*	*	*	*	*	*	*	*
4r	.	.	4r	.	.	.	4r	.	.	.	2.ff\	in	.	.	4r	.	4r	.	4r	4r	2.ff\	.
4F\	in	.	4c\	-ter-	.	.	4an\	in	.	.	.	.	.	.	4g\	.	4f\	.	4F\	4a\	.	.
!	!LO:SIC:v:l:s=ae-	!	!	!	!	!	!	!	!	!	!	!	!	!	!	!	!	!	!	!	!	!
4G\	E-	.	4B-\	.	.	.	4b-\	.	.	.	.	.	.	.	4f\	.	4f\	.	4G\	4b-\	.	.
!	!	!	!	!	!	!	!	!LO:SIC:v:l:s=ae-	!	!	!	!	!	!	!	!	!	!	!	!	!	!
4An\	.	.	4An\	.	.	.	4cc\	e-	.	.	4ee-\	ae-	.	.	4f\	.	4f\	.	4An\	4cc\	4ee-\	.
=17	=17	=17	=17	=17	=17	=17	=17	=17	=17	=17	=17	=17	=17	=17	=17	=17	=17	=17	=17	=17	=17	=17
2B-\	-ter-	.	2B-\	.	.	.	2f\	-ter-	.	.	2dd\	-ter-	.	.	2f\	.	2f\	.	4B-\	2f/	2dd\	.
.	.	.	.	.	.	.	.	.	.	.	.	.	.	.	.	.	.	.	4F\	.	.	.
2BB-/	-num	.	2B-\	-num	.	.	2f\	-num	.	.	2dd\	-num	.	.	2r	.	2r	.	4D\	2f/	2dd\	.
.	.	.	.	.	.	.	.	.	.	.	.	.	.	.	.	.	.	.	4BB-/	.	.	.
*	*	*	*	*	*	*	*	*	*	*	*	*Xij	*	*	*	*	*	*	*	*	*	*
=18	=18	=18	=18	=18	=18	=18	=18	=18	=18	=18	=18	=18	=18	=18	=18	=18	=18	=18	=18	=18	=18	=18
!	!	!	!	!	!	!	!	!	!	!	!	!	!	!	!	!LO:DY:a	!	!	!	!	!	!
!	!	!	!	!	!	!	!	!	!	!	!	!	!	!	!	!LO:MO:mod=.	!	!	!	!	!	!
2r	.	.	2r	.	.	.	2r	.	.	.	2r	.	.	.	4r	p	4r	.	2E-\	8E-/L	4r	.
.	.	.	.	.	.	.	.	.	.	.	.	.	.	.	.	.	.	.	.	8B-/	.	.
!	!	!	!	!	!	!	!	!	!	!	!	!	!	!	!	!LO:MO:null:mod=p	!	!LO:DY:a	!	!	!	!
.	.	.	.	.	.	.	.	.	.	.	.	.	.	.	4G/	.	4e-\	p	.	8d/	4ee-\	p
.	.	.	.	.	.	.	.	.	.	.	.	.	.	.	.	.	.	.	.	8B-/J	.	.
!	!	!LO:DY:a	!	!	!	!	!	!	!	!	!	!	!	!	!	!	!	!	!	!	!	!
4E-\	qui	p	4e-\	Qui-	.	p	4e-\	qui-	.	p	4b-\	qui	.	p	4G/	.	4e-\	.	2r	8E-/L	4ee-\	.
.	.	.	.	.	.	.	.	.	.	.	.	.	.	.	.	.	.	.	.	8B-/	.	.
4E-\	.	.	4e-\	-a	.	.	4e-\	-a	.	.	4b-\	.	.	.	4G/	.	4e-\	.	.	8d/	4ee-\	.
.	.	.	.	.	.	.	.	.	.	.	.	.	.	.	.	.	.	.	.	8B-/J	.	.
=19	=19	=19	=19	=19	=19	=19	=19	=19	=19	=19	=19	=19	=19	=19	=19	=19	=19	=19	=19	=19	=19	=19
2.BB-/	Pi-	.	2.d\	Pi-	.	.	2.f\	Pi-	.	.	2.b-\	Pi-	.	.	2.B-/	.	2.f\	.	4r	8D/L	2.ff\	.
.	.	.	.	.	.	.	.	.	.	.	.	.	.	.	.	.	.	.	.	8F/	.	.
.	.	.	.	.	.	.	.	.	.	.	.	.	.	.	.	.	.	.	4BB-/	8B-/	.	.
.	.	.	.	.	.	.	.	.	.	.	.	.	.	.	.	.	.	.	.	8A-/J	.	.
.	.	.	.	.	.	.	.	.	.	.	.	.	.	.	.	.	.	.	4BB-/	8D/L	.	.
.	.	.	.	.	.	.	.	.	.	.	.	.	.	.	.	.	.	.	.	8F/	.	.
4BB-/	-us	.	8e-\L	-us	.	.	8g\L	-us	.	.	4b-\	-us	.	.	8e-\L	.	8g\L	.	4BB-/	8B-/	8gg\L	.
.	.	.	8f\J	.	.	.	8a-X\J	.	.	.	.	.	.	.	8f\J	.	8a-\J	.	.	8A-/J	8aa-\J	.
=20	=20	=20	=20	=20	=20	=20	=20	=20	=20	=20	=20	=20	=20	=20	=20	=20	=20	=20	=20	=20	=20	=20
2E-\	est	.	2e-\	est	.	.	2g\	est	.	.	2b-\	est	.	.	4e-\	.	4g\	.	2EE-/	8E-/L	4gg\	.
.	.	.	.	.	.	.	.	.	.	.	.	.	.	.	.	.	.	.	.	8G/	.	.
.	.	.	.	.	.	.	.	.	.	.	.	.	.	.	4G/	.	4e-\	.	.	8B-/	4ee-\	.
.	.	.	.	.	.	.	.	.	.	.	.	.	.	.	.	.	.	.	.	8G/J	.	.
*	*ij	*	*	*	*	*	*	*ij	*	*	*	*ij	*	*	*	*	*	*	*	*	*	*
!	!LO:MO:null:mod=qui-	!	!	!LO:MO:null:mod=qui-	!	!	!	!LO:MO:null:mod=qui-	!	!	!	!LO:MO:null:mod=qui-	!	!	!	!	!	!	!	!	!	!
4E-\	qui	.	4e-\	.	.	.	4e-\	qui	.	.	4b-\	qui	.	.	4G/	.	4e-\	.	2r	8E-/L	4ee-\	.
.	.	.	.	.	.	.	.	.	.	.	.	.	.	.	.	.	.	.	.	8G/	.	.
!	!LO:MO:null:mod=-a	!	!	!LO:MO:null:mod=-a	!	!	!	!LO:MO:null:mod=-a	!	!	!	!LO:MO:null:mod=-a	!	!	!	!	!	!	!	!	!	!
4E-\	.	.	4e-\	.	.	.	4e-\	.	.	.	4b-\	.	.	.	4G/	.	4e-\	.	.	8B-/	4ee-\	.
.	.	.	.	.	.	.	.	.	.	.	.	.	.	.	.	.	.	.	.	8G/J	.	.
=21	=21	=21	=21	=21	=21	=21	=21	=21	=21	=21	=21	=21	=21	=21	=21	=21	=21	=21	=21	=21	=21	=21
2.BB-/	pi-	.	2.d\	Pi-	.	.	2.f\	pi-	.	.	2.b-\	pi-	.	.	2.B-/	.	2.f\	.	4r	8D/L	2.ff\	.
.	.	.	.	.	.	.	.	.	.	.	.	.	.	.	.	.	.	.	.	8F/	.	.
.	.	.	.	.	.	.	.	.	.	.	.	.	.	.	.	.	.	.	4BB-/	8B-/	.	.
.	.	.	.	.	.	.	.	.	.	.	.	.	.	.	.	.	.	.	.	8A-/J	.	.
.	.	.	.	.	.	.	.	.	.	.	.	.	.	.	.	.	.	.	4BB-/	8D/L	.	.
.	.	.	.	.	.	.	.	.	.	.	.	.	.	.	.	.	.	.	.	8F/	.	.
4BB-/	-us	.	8e-\L	-us	.	.	8g\L	-us	.	.	4b-\	-us	.	.	8e-\L	.	8g\L	.	4BB-/	8B-/	8gg\L	.
.	.	.	8f\J	.	.	.	8a-\J	.	.	.	.	.	.	.	8f\J	.	8a-\J	.	.	8A-/J	8aa-\J	.
=22	=22	=22	=22	=22	=22	=22	=22	=22	=22	=22	=22	=22	=22	=22	=22	=22	=22	=22	=22	=22	=22	=22
2E-\	est	.	2.e-\	Qui-	.	.	2g\	est	.	.	2b-\	est	.	.	4e-\	.	4g\	.	2EE-/	8E-/L	4gg\	.
.	.	.	.	.	.	.	.	.	.	.	.	.	.	.	.	.	.	.	.	8G/	.	.
.	.	.	.	.	.	.	.	.	.	.	.	.	.	.	4e-\	.	4g\	.	.	8B-/	4gg\	.
.	.	.	.	.	.	.	.	.	.	.	.	.	.	.	.	.	.	.	.	8G/J	.	.
!	!LO:MO:mod=qui-	!	!	!	!	!	!	!LO:MO:mod=qui-	!	!	!	!LO:MO:mod=qui-	!	!	!	!	!	!	!	!	!	!
4E-\	qui	.	.	.	.	.	4g\	qui	.	.	4g\	qui	.	.	4e-\	.	4g\	.	2r	8E-/L	4gg\	.
.	.	.	.	.	.	.	.	.	.	.	.	.	.	.	.	.	.	.	.	8G/	.	.
!	!LO:MO:null:mod=-a	!	!	!	!	!	!	!LO:MO:null:mod=a	!	!	!	!LO:MO:null:mod=-a	!	!	!	!	!	!	!	!	!	!
4E-\	.	.	4B-\	-a	.	.	4g\	.	.	.	4g\	.	.	.	4e-\	.	4g\	.	.	8B-/	4gg\	.
.	.	.	.	.	.	.	.	.	.	.	.	.	.	.	.	.	.	.	.	8G/J	.	.
=23	=23	=23	=23	=23	=23	=23	=23	=23	=23	=23	=23	=23	=23	=23	=23	=23	=23	=23	=23	=23	=23	=23
!	!	!	!	!LO:MO:mod=pi-	!	!	!	!	!	!	!	!	!	!	!	!	!	!	!	!	!	!
2.F\	pi-	.	2.c\	Pi-	.	.	2.e-\	pi-	.	.	2.an\	pi-	.	.	1f	.	1aX	.	4r	8c/L	1aa	.
.	.	.	.	.	.	.	.	.	.	.	.	.	.	.	.	.	.	.	.	8e-/	.	.
.	.	.	.	.	.	.	.	.	.	.	.	.	.	.	.	.	.	.	4FF/	8f/	.	.
.	.	.	.	.	.	.	.	.	.	.	.	.	.	.	.	.	.	.	.	8e-/J	.	.
.	.	.	.	.	.	.	.	.	.	.	.	.	.	.	.	.	.	.	4F\	8c/L	.	.
.	.	.	.	.	.	.	.	.	.	.	.	.	.	.	.	.	.	.	.	8e-/	.	.
4F\	-us	.	4c\	-us	.	.	4e-\	-us	.	.	4a\	-us	.	.	.	.	.	.	4FF/	8f/	.	.
.	.	.	.	.	.	.	.	.	.	.	.	.	.	.	.	.	.	.	.	8e-/J	.	.
=24	=24	=24	=24	=24	=24	=24	=24	=24	=24	=24	=24	=24	=24	=24	=24	=24	=24	=24	=24	=24	=24	=24
2BB-/	est	.	2B-\	est.	.	.	2d\	est	.	.	2b-\	est	.	.	2f\	.	2b-\	.	2BB-/	2d/	2bb-\	.
*	*Xij	*	*	*	*	*	*	*Xij	*	*	*	*Xij	*	*	*	*	*	*	*	*	*	*
2r	.	.	2r	.	.	.	2r	.	.	.	2r	.	.	.	2r	.	2r	.	2r	8dd\L	8ff\L	.
.	.	.	.	.	.	.	.	.	.	.	.	.	.	.	.	.	.	.	.	8cc\	8ee-\	.
.	.	.	.	.	.	.	.	.	.	.	.	.	.	.	.	.	.	.	.	8cc\	8ee-\	.
.	.	.	.	.	.	.	.	.	.	.	.	.	.	.	.	.	.	.	.	8b-\J	8dd\J	.
=25	=25	=25	=25	=25	=25	=25	=25	=25	=25	=25	=25	=25	=25	=25	=25	=25	=25	=25	=25	=25	=25	=25
!LO:TX:a:t=3:mod=	!	!	!LO:TX:a:t=3:mod=	!	!	!	!LO:TX:a:t=3:mod=	!	!	!	!LO:TX:a:t=3:mod=	!	!	!	!	!	!	!	!	!	!LO:TX:t=P:problem=brakujący fragment	!
0r	.	.	0r	.	.	.	0r	.	.	.	0r	.	.	.	2B-/	.	2f\	.	2BBB-/	2b-\	1ryy	.
.	.	.	.	.	.	.	.	.	.	.	.	.	.	.	2r	.	2r	.	2r	8f/L	.	.
.	.	.	.	.	.	.	.	.	.	.	.	.	.	.	.	.	.	.	.	8e-/	.	.
.	.	.	.	.	.	.	.	.	.	.	.	.	.	.	.	.	.	.	.	8e-/	.	.
.	.	.	.	.	.	.	.	.	.	.	.	.	.	.	.	.	.	.	.	8d/J	.	.
=26	=26	=26	=26	=26	=26	=26	=26	=26	=26	=26	=26	=26	=26	=26	=26	=26	=26	=26	=26	=26	=26	=26
.	.	.	.	.	.	.	.	.	.	.	.	.	.	.	2B-/	.	2f\	.	4BBB-/	2d/	2b-\	.
.	.	.	.	.	.	.	.	.	.	.	.	.	.	.	.	.	.	.	4BB-/	.	.	.
.	.	.	.	.	.	.	.	.	.	.	.	.	.	.	4B-/	.	4f\	.	4FF/	4d/	4b-\	.
.	.	.	.	.	.	.	.	.	.	.	.	.	.	.	4B-/	.	4f\	.	4DD/	4d/	4b-\	.
=27	=27	=27	=27	=27	=27	=27	=27	=27	=27	=27	=27	=27	=27	=27	=27	=27	=27	=27	=27	=27	=27	=27
!!!OMD:
!!!OMD-mod: Finis \nRequiem ut supra
!LO:TX:a:Bi:t=Requiem ut supra:mod=	!	!	!LO:TX:a:Bi:t=Requiem ut supra:mod=	!	!	!	!LO:TX:a:Bi:t=Requiem ut supra:mod=	!	!	!	!LO:TX:a:Bi:t=Requiem ut supra:mod=	!	!	!	!LO:TX:b:Bi:t=Requiem ut Supra.:mod=	!	!LO:TX:a:Bi:t=Finis. Requiem ut Supra:mod=	!	!	!LO:TX:b:Bi:t=Finis Corona:mod=	!	!
!	!	!	!	!	!	!	!	!	!	!	!	!	!	!	!LO:MO:mod=1B-;	!	!LO:MO:mod=1f;	!	!	!	!	!
1r	.	.	1r	.	.	.	1r	.	.	.	1r	.	.	.	1B-	.	1f	.	2BBB-;/	1d;	1b-;	.
.	.	.	.	.	.	.	.	.	.	.	.	.	.	.	.	.	.	.	2r	.	.	.
==	==	==	==	==	==	==	==	==	==	==	==	==	==	==	==	==	==	==	==	==	==	==
*-	*-	*-	*-	*-	*-	*-	*-	*-	*-	*-	*-	*-	*-	*-	*-	*-	*-	*-	*-	*-	*-	*-
!!!system-decoration: [(s1,s2,s3)][(s4,s5)][(s6,s7,s8,s9)]
!!!RDF**kern: > = above
!!!RDF**kern: < = below
!!!RDF**kern: | = vertical stroke
!!!RDF**kern: N = linked
!!!RDF**kern: i = editorial accidental
!!!RDF**kern: l = terminal long
!!!filter-modern: sic -sq | autostem -r | tie -si | shed -e "s/LO:DY:(a|b|rj)/LO:dy:$1/L" | shed -e "s/^(\d+[\/\\]right)/$1yy/I; s/^(\d+[\/\\]left)/$1yy/I" |  shed -e "s/TX(.*):t=P:/tx$1:t=P:/LG" | modori -m
!!!ENC: Andrzej Gręziak
!!!END: 2020-09-21
!!!EED: Wojciech Jakubiak-Danek
!!!EEV: 2022-01-31
!!!ENC-modern: Leszek Kubiak
!!!END-modern: 2022-12-08
